X:14
T:Chestnut. (p)1651.PLFD1.014
T:Dove's Vagary. (p)1651.PLFD1.014
M:4/4
L:1/8
Q:1/2=90
S:Playford, Dancing Master,1st Ed.,1651.
O:England;London
N:Vagary=Figary=Fig house.
H:1651.
Z:Chris Partington.
K:Dm
d2 a2 g2 f2|e3 d ^c2 A2|d2 e2 f2 f2|g2 fg a4:|
|:a2 ab c'2 ba|g2 ga b2 ag|a2 a2 a2 gf|g3 f f4|
a2 ba bagf|g2 ag ag e2|f2 d2 d2 g2|e3 d d4:|
